!!!!SEGMENT: pl-kk--kk-i-277--001-002_anonim--rorate-caeli-kyrie.krn
!!!cenid: 16xx:1074
!!!COM: Anonim
!!!COM-rismid: pe30004985
!!!CDT:
!!!CNT:
!!!OPR: Rorate caeli
!!!OTL: Kyrie
!!!OMV: 002
!!!PDT:
!!!AGN: Sacred
!!!SMS-siglum: PL-Kk
!!!SMS-shelfmark: Kk.I.277
!!!SMS-shelfwork: 001-002 M
!!!SMS-variant:
!!!SMS-altvar:
!!!NIFC-rismid: 1001147186
!!!URL-scan: http://repozytorium.nifc.pl/skany/pl-kk-nut--i-277
!!!ONB-nifc: UWAGA: Rorate 1mi officii od str. 1. Części: 1. Rorate caeli (Rorate caeli + Benedixisti + Gloria patri), 2. Kyrie, 3. Tollite portas, 4. Alleluia, 5. Mittit ad virginem, 6. Ave Maria, 7. Sanctus, 8. Agnus Dei, 9. Ecce virgo, 10. Deo gratias
!!!key:
**kern	**text
*Itenor	*
*I"[Tenore]	*
*I'[T]	*
*clefC4	*
*k[]	*
*F:	*
*M2/1	*
*met(C)	*
!LO:TX:t=P:problem:K wielkie, przed kluczem, na pocz. pięciolinii, jako inicjał	!
1F	Ky-
1D	-ri-
=1-	=1-
1F	-e
*lig	*
1G	.
=2-	=2-
1A	.
*Xlig	*
*lig	*
1B	.
=3-	=3-
1A	.
*Xlig	*
*lig	*
1G	.
=4-	=4-
1F	.
*Xlig	*
1D	e-
=5-	=5-
1E	-ley-
1F;;l	-ſon
=6||	=6||
!LO:TX:t=P:problem:wielkie C jako inicjał	!
(<1F	Chri-
1c)	.
=7-	=7-
1c	-ſte
*lig	*
1B	.
=8-	=8-
1A	.
*Xlig	*
*lig	*
1B	.
=9-	=9-
1c	.
*Xlig	*
*lig	*
!LO:LB:g=original	!
1d	.
=10-	=10-
1c	.
*Xlig	*
1A	e-
=11-	=11-
*lig	*
1B	.
1A	.
*Xlig	*
=12-	=12-
*lig	*
1G	.
1F	.
*Xlig	*
=13-	=13-
1D	-ley-
1E	.
=14-	=14-
0F;;	-ſon
=15||	=15||
*lig	*
!LO:TX:t=P:problem:wielkie K jako inicjał	!
1F	Ky-
1c	.
*Xlig	*
=16-	=16-
1c	-ri-
*lig	*
1d	-e
=17-	=17-
1c	.
*Xlig	*
*lig	*
1f	.
=18-	=18-
1e	.
*Xlig	*
*lig	*
1d	.
=19-	=19-
1c	.
*Xlig	*
1B	e-
=20-	=20-
*lig	*
1c	.
1d	.
*Xlig	*
=21-	=21-
*lig	*
1c	.
1A	.
!LO:LB:g=original	!
*Xlig	*
=22-	=22-
*lig	*
1B	.
1A	.
=23-	=23-
1G	.
1F	.
*Xlig	*
=24-	=24-
1D	-ley-
1E	-ſon
=25-	=25-
0F;;l	.
=26||	=26||
*lig	*
!LO:TX:t=P:problem:wielkie K jako inicjał	!
1F	Ky-
1c	.
*Xlig	*
=27-	=27-
1c	-ri-
*lig	*
1d	-e
=28-	=28-
1c	.
*Xlig	*
*lig	*
1f	.
=29-	=29-
1e	.
*Xlig	*
*lig	*
1d	.
=30-	=30-
1c	.
*Xlig	*
*lig	*
1B	.
=31-	=31-
1c	.
*Xlig	*
*lig	*
1d	.
=32-	=32-
1c	.
*Xlig	*
1A	.
=33-	=33-
!LO:TX:a:t=2	!
0c	e-
=34-	=34-
*lig	*
1B	.
1c	.
*Xlig	*
=35-	=35-
*lig	*
1d	.
1c	.
*Xlig	*
=36-	=36-
1A	.
!LO:LB:g=original	!
*lig	*
1B	.
=37-	=37-
1A	.
*Xlig	*
*lig	*
1G	.
=38-	=38-
1F	.
*Xlig	*
*lig	*
1D	.
=39-	=39-
1E	.
*Xlig	*
1F	-ley-
=40-	=40-
0F;;l	-ſon.
=-	=-
*-	*-
!!!RDF**kern: l = terminal long
!!!RDF**kern: > = above
!!!RDF**kern: < = below
!!!EED: Antoni Szymański
!!!EST: 2021-03-28
!!!AIN: 1 tenor
!!!ENC: Mateusz Solarz
!!!END: 2021-03-15
